X:54
T:Mouse in the Cupboard, The
R:jig
H:Related to "Scully Casey's", #115
D:Boys of the Lough: Sweet Rural Shade
Z:id:hn-jig-54
M:6/8
K:G
BGG AGE|DGG AGA|~B3 cBc|dgg fdc|BGG AGE|DGG AGA|~B3 cAF|AGF G2A:|
|:~B3 cBc|dgg fdc|~B3 cBc|dgf g2a|bgg age|dge dBA|GAB AGA|BGF G2A:|

